src/assets/sb-icon.svg

<svg width="64" height="25" viewBox="0 0 64 25" fill="none" xmlns="http://www.w3.org/2000/svg">
<g clip-path="url(#clip0_286_414)">
<path d="M34.6453 12.5693L34.7432 12.4899L51.4523 9.46158C52.3596 9.51902 53.0283 9.47847 53.8126 9.00205L61.8043 7.56689C61.7934 8.95391 61.1263 10.4634 60.1621 11.4441C60.0541 11.5539 59.4348 11.9898 59.459 12.0945C61.3255 12.8936 62.7484 14.3313 63.1971 16.3738C64.1521 20.7258 61.5448 24.1291 57.2033 24.4408L34.6461 24.4383V12.5693H34.6453ZM42.9751 18.7551H54.5015C54.5358 18.7551 54.9467 18.4856 55.002 18.4315C55.6055 17.8453 55.6841 16.8367 55.2004 16.155C55.0865 15.9954 54.6195 15.5578 54.4429 15.5578H42.9751V18.7542V18.7551Z" fill="white"/>
<path d="M20.4215 8.4552C19.993 7.84194 19.5862 7.32413 18.9266 6.94486C16.9622 5.81379 11.7317 5.81886 9.774 6.94486C9.0885 7.33934 8.27577 8.36904 9.13453 9.0127C9.73466 9.46293 11.3292 9.62427 12.0925 9.69776C16.4642 10.1184 23.418 9.79237 27.0388 12.4921C27.2171 12.6247 27.5854 12.8958 27.6959 13.0724C27.7218 13.1138 27.7628 13.1737 27.6942 13.1915C27.5251 13.1898 27.3711 13.2591 27.2096 13.2945C23.3862 14.1291 19.4598 14.6528 15.6104 15.3277C11.4472 14.9316 3.28975 15.1917 0.740238 11.1515C-0.431565 9.29484 -0.107645 6.42536 0.98799 4.5915C3.73587 -0.00540608 11.931 -0.136336 16.609 0.0486554C21.6661 0.248007 27.3318 0.958407 28.8217 6.72608C28.933 7.15603 29.1104 7.82927 29.128 8.25753C29.1305 8.32596 29.1062 8.4552 29.0435 8.4552H20.4207H20.4215Z" fill="white"/>
<path d="M39.7483 9.40161C39.8061 9.38219 39.8755 9.46074 39.8948 9.46074H47.8429C47.853 9.54944 47.6856 9.54944 47.6203 9.56126C42.3313 10.5648 37.0155 11.4289 31.7348 12.4738L31.3599 12.391V0.788118L31.5624 0.696045H52.6256C53.9146 0.863297 55.1952 1.22652 56.2506 2.01126C57.974 3.29268 58.796 5.36137 58.5507 7.50862L50.4527 9.04346L50.3941 8.92773C50.8846 8.27477 50.8905 7.46132 50.364 6.82694C50.2711 6.71459 49.8635 6.38178 49.7496 6.38178H39.8362L39.7483 6.47047V9.40077V9.40161Z" fill="white"/>
<path d="M3.5564 18.2237L12.1122 16.6931C12.6111 17.7101 13.7243 18.304 14.7814 18.5869C16.6329 19.0828 21.6649 19.1047 23.1196 17.6898C23.4988 17.3207 23.8445 16.5655 23.3783 16.1271C22.6978 15.4868 20.5718 15.4936 19.6578 15.3821C19.5507 15.3686 19.5632 15.4007 19.5708 15.2638L30.9833 13.1884C31.0988 13.1757 31.1448 13.2391 31.2176 13.3075C32.4104 14.4259 32.5167 16.7463 32.2346 18.2465C30.8962 25.3547 19.6804 25.2483 14.2617 24.8547C11.8871 24.6823 9.57946 24.4087 7.4359 23.2784C5.47146 22.2428 4.04688 20.4132 3.55723 18.2254L3.5564 18.2237Z" fill="white"/>
<path d="M8.65941 16.5648C8.57739 16.7177 8.30452 16.7498 8.14466 16.7853C5.83704 17.3006 3.03643 17.8141 0.696176 18.1478C0.55807 18.1672 0.414106 18.1774 0.276838 18.1562C0.245869 17.8885 0.141243 17.6173 0.101904 17.3563C0.0834903 17.2372 -0.024483 16.564 0.124503 16.564H8.65941V16.5648Z" fill="white"/>
</g>
<defs>
<clipPath id="clip0_286_414">
<rect width="63.3929" height="25" fill="white"/>
</clipPath>
</defs>
</svg>

<svg xmlns="http://www.w3.org/2000/svg" width="64" height="25" fill="none"><g fill="#fff" clip-path="url(#a)"><path d="m34.645 12.57.098-.08 16.71-3.028c.907.057 1.575.016 2.36-.46l7.991-1.435c-.01 1.387-.678 2.896-1.642 3.877-.108.11-.727.546-.703.65 1.866.8 3.29 2.237 3.738 4.28.955 4.352-1.652 7.755-5.994 8.067l-22.557-.003V12.57m8.33 6.185h11.526c.035 0 .446-.27.501-.323.603-.587.682-1.595.198-2.277-.114-.16-.58-.597-.757-.597H42.975zM20.422 8.455c-.429-.613-.836-1.13-1.495-1.51-1.965-1.131-7.195-1.126-9.153 0-.685.394-1.498 1.424-.64 2.068.6.45 2.195.611 2.958.685 4.372.42 11.326.094 14.947 2.794.178.133.546.404.657.58.026.042.067.102-.002.12-.169-.002-.323.067-.484.102-3.824.835-7.75 1.359-11.6 2.034-4.163-.396-12.32-.136-14.87-4.176-1.172-1.857-.848-4.727.248-6.56C3.736-.006 11.931-.136 16.609.048c5.057.199 10.723.91 12.213 6.677.111.43.288 1.103.306 1.532.003.068-.022.197-.084.197H20.42M39.748 9.402c.058-.02.128.059.147.059h7.948c.01.088-.157.088-.223.1-5.289 1.004-10.604 1.868-15.885 2.913l-.375-.083V.788l.202-.092h21.064c1.289.167 2.57.53 3.625 1.315 1.723 1.282 2.545 3.35 2.3 5.498l-8.098 1.534-.059-.115c.49-.653.497-1.467-.03-2.101-.093-.112-.5-.445-.614-.445h-9.914l-.088.088v2.932M3.556 18.224l8.556-1.53c.5 1.016 1.612 1.61 2.67 1.893 1.85.496 6.883.518 8.338-.897.379-.37.724-1.125.258-1.563-.68-.64-2.806-.633-3.72-.745-.107-.013-.095.019-.087-.118l11.412-2.076c.116-.012.162.051.235.12 1.192 1.118 1.299 3.438 1.017 4.939-1.339 7.108-12.555 7.001-17.973 6.608-2.375-.173-4.683-.446-6.826-1.577a7.58 7.58 0 0 1-3.879-5.053zM8.66 16.565c-.083.153-.355.185-.515.22a104 104 0 0 1-7.449 1.363c-.138.02-.282.03-.42.008-.03-.267-.135-.539-.174-.8-.019-.119-.126-.792.023-.792h8.534"/></g><defs><clipPath id="a"><path fill="#fff" d="M0 0h63.393v25H0z"/></clipPath></defs></svg>
